X:48
M:4/4
L:1/4
K:Bb
F3 F | B3 A | A3 B | G4 | F3 D | D2 .(C B,) | D3 E | C4 | F3 F | B3 A | A3 B | G4 | !sintro!F3 D | D2 .(C B,) | D3 C | B,4 !eintro!|]
